!!!!SEGMENT: pl-wnifc--13846--034_anonim--piesni-polskie-i-ruskie-ludu-galicyjskiego-34-na-dolinie-przy-olszynie.krn
!!!cenid: 18xx:3256
!!!COM: Anonim
!!!COM-rismID:
!!!CDT:
!!!CNT:
!!!GTL: Pieśni polskie i ruskie ludu galicyjskiego
!!!OTL: 34. Na dolinie przy olszynie
!!!PDT: 1833
!!!AGN:
!!!SMS-siglum: PL-Wnifc
!!!SMS-shelfmark: 13846
!!!SMS-shelfwork: 034 G
!!!SMS-variant:
!!!SMS-altvar:
!!!NIFC-rismSourceID: 1001036906
!!!NIFC-islandoraID:
!!!URL-pdf-islandora:
!!!URL-scan:
!!!ONB-nifc:
!!!AIN: 2 piano 1 vox
!!!key: A
!!!OMD: Mazur.
**kern	**kern	**dynam	**kern	**text
*part3	*part2	*part2	*part1	*part1
*staff3	*staff2	*	*staff1	*staff1
*I"FORTEPIAN.	*I"FORTEPIAN.	*	*I"GŁOS.	*
*Ipiano	*Ipiano	*	*Ivox	*
*ICklav	*ICklav	*	*ICvox	*
*IGacmp	*IGacmp	*	*IGsolo	*
*clefF4	*clefG2	*	*clefG2	*
*k[f#c#g#]	*k[f#c#g#]	*	*k[f#c#g#]	*
*A:	*A:	*	*A:	*
*M3/8	*M3/8	*	*M3/8	*
=1	=1	=1	=1	=1
*^	*	*	*	*
!	!	!	!	!LO:TX:a:t=D.b.b.7.	!
4.AA/	8AA\L	16e/LL	.	16e/	Na
.	.	16a/JJ	.	16a/	do-
!	!	!	!LO:DY:rj	!	!
.	8c# 8A 8E\	8cc# 8a 8e/	sf	8cc#\	-li-
.	8c#J 8A 8E\	16b\LL	.	(16b\LL	-nie
.	.	16a\JJ	.	16a\JJ)	.
=2	=2	=2	=2	=2	=2
4.EE/	8EE\L	16g#\LL	.	16g#/	przy
.	.	16b\JJ	.	16b/	ol-
.	8B 8G# 8E\	8dd 8b 8g#\	.	8dd\	-szy-
.	8BJ 8G# 8E\	(16cc#\LL	.	(16cc#\LL	-nie
.	.	16b\JJ)	.	16b\JJ)	.
!!LO:PB:g=original
=3	=3	=3	=3	=3	=3
4.AA/	8AA\L	4cc# 4a\	.	4cc#\	buj-
.	8c# 8A 8E\	.	.	.	.
.	8c#J 8A 8E\	8ee 8cc#\	.	8ee\	-ną
=4	=4	=4	=4	=4	=4
4.AA/	8AA\L	16ff#LL 16dd\	.	16ff#\	łącz-
.	.	16eeJJ 16cc#\	.	16ee\	-kę
.	8c# 8A 8E\	8dd#XL 8b#X\	.	8dd#X\	ro-
.	8c#J 8A 8E\	8eeJ 8cc#\	.	8ee\	-si,
=5	=5	=5	=5	=5	=5
4.AA/	8AA\L	16e/LL	.	16e/	stru-
.	.	16a/JJ	.	16a/	-myk
.	8c# 8A 8E\	8cc# 8a 8e/	.	8cc#\	czy-
.	8c#J 8A 8E\	16b\LL	.	(16b/LL	-sty,
.	.	16a\JJ	.	16a/JJ)	.
!!LO:LB:g=original
=6	=6	=6	=6	=6	=6
4.EE/	8EE\L	16g#/LL|	.	16g#/	prze-
.	.	16b/JJ|	.	16b/	-zro-
.	8B 8G# 8E\	8dd 8b 8g#/	.	8dd\	-czy-
.	8BJ 8G# 8E\	(16cc#\LL	.	(16cc#\LL	-sty,
.	.	16b\JJ)	.	16b\JJ)	.
=7	=7	=7	=7	=7	=7
4.AA/	8AA\L	4cc# 4a\	.	4cc#\	zwier-
.	8c# 8A 8E\	.	.	.	.
.	8c#J 8A 8E\	8ee 8cc#\	.	8ee\	-cia-
*v	*v	*	*	*	*
=8	=8	=8	=8	=8
!LO:TX:t=P:problem=mixed beam	!	!	!	!
8EE/L	16ff#LL 16dd\	.	16ff#\	-dło
.	16eeJJ 16cc#\	.	16ee\	Te-
8B 8E\	8g#L 8d/	.	8g#/	-o-
8A\J	8aJ 8c#/	.	8a/	-si.
==	==	==	==	==
*-	*-	*-	*-	*-
!!!system-decoration: s1[(s2,s3)]
!!!RDF**kern: | = vertical stroke
!!!ENC: Anastazja Marusiak
!!!END: 2021-11-09
!!!ENC: Marta Lawrence
!!!END: 2021-11-11
